src/icons/solid/office-building.svg

<svg width="20" height="20" viewBox="0 0 20 20" fill="none" xmlns="http://www.w3.org/2000/svg">
<path fill-rule="evenodd" clip-rule="evenodd" d="M4 4C4 2.89543 4.89543 2 6 2H14C15.1046 2 16 2.89543 16 4V16C16.5523 16 17 16.4477 17 17C17 17.5523 16.5523 18 16 18H13C12.4477 18 12 17.5523 12 17V15C12 14.4477 11.5523 14 11 14H9C8.44772 14 8 14.4477 8 15V17C8 17.5523 7.55228 18 7 18H4C3.44772 18 3 17.5523 3 17C3 16.4477 3.44772 16 4 16V4ZM7 5H9V7H7V5ZM9 9H7V11H9V9ZM11 5H13V7H11V5ZM13 9H11V11H13V9Z" fill="#4A5568"/>
</svg>

<svg xmlns="http://www.w3.org/2000/svg" viewBox="0 0 20 20" fill="currentColor">
  <path fill-rule="evenodd" d="M4 4a2 2 0 012-2h8a2 2 0 012 2v12a1 1 0 110 2h-3a1 1 0 01-1-1v-2a1 1 0 00-1-1H9a1 1 0 00-1 1v2a1 1 0 01-1 1H4a1 1 0 110-2V4zm3 1h2v2H7V5zm2 4H7v2h2V9zm2-4h2v2h-2V5zm2 4h-2v2h2V9z" clip-rule="evenodd"/>
</svg>
